X:1
T:To Lucasta on Going to the Wars
T:To Lucasta on Going to the Wars
T:Copyright © CPDL
T:Copyright © CPDL
T:Copyright © CPDL
T:Copyright © CPDL
T:Copyright © CPDL
Z:Copyright © CPDL
%%score 1 { ( 2 3 ) ( 4 5 ) }
L:1/8
Q:1/4=100
M:4/4
K:F
V:1 treble nm="P1"
V:2 treble nm="P2"
V:3 treble 
V:4 bass nm="P3"
V:5 bass 
V:1
"^Editor: John Henry Fowler""^(  Revision:   5 - 16 - 2008  )""^Allegretto.""^From \"English Lyrics\" -  Set 3 -  Number 1""^Lyrics by Richard Lovelace  -  ( 1618–1658 )" z8 | %1
w: |
 z8 |"^Charles Hubert Hastings Parry" z2!mf!"^( 1848 - 1918 )"!<(! A3 B!<)! c2 | %3
w: |Tell me not,|
 c2!>(! D2 E2!>)! G2 | C8 | z2 F2!<(! B2!<)! d2 |!>(! d3!>)! E E2!p! G2 |"^dolce" c4 c4 | F6 F2 | %9
w: sweet, I am un-|kind|That from the|nun- ne- ry Of|thy chaste|breast And|
 B4 B4 | E8 | z2!f!!<(! A2!<)!"^poco rit." !>!d4- | d2!>(! F2 B3!>)! A |"^a tempo" c6 z2 | z8 | %15
w: qui- et|mind,|To war,|_ and arms I|fly.||
!f! z2"^Animato." !>!d2 z c =B2 | c2 G2 F3 G | E8 | z2 A2 !>!c4 | !>!E4 !>!F3 D | C6 z2 | %21
w: True, a new|mis- tress now I|chase,|The first|foe in the|field;|
 z2 A2 c2 G2 | F3 F A2 F2 | D6 z2 | z2 G2"^allargando" !>!e4- | e2 A2 c2 z =B |"^a tempo" c8 | z8 | %28
w: And with a|strong- er faith em-|brace|A sword,|_ a horse, a|shield.||
 z8 | z8 | z2!p! G2!<(! A2!<)! B2 | c3 A G2 A2 | F6!<)!!<(! A2 | d2 B4 AG | (F2 E2) z4 | %35
w: ||Yet this in-|con- stan- cy is|such As|you too shall a-|\-~dore _|
 z2!f!"^sostenuto" !>!c2!<(! !>!d2!<)! !>!_e2 | !>!_e2 G2 A2 c2 | F8 | z4!p! d4 | F6!<(! G2 | %40
w: I could not|love thee, dear, so|much,|Loved|I not|
 (A2!<)! B2 c4-) |!>(! c4!>)! E4 |"^a tempo" F8 | z8 | z8 | z8 | z8 |] %47
w: ho- * *|* nour|more.|||||
V:2
 z2!<(! (A3 B)!<)! [Cc]2 |!>(! (c2 D2 E2!>)! [B,G]2) | [A,C]6 [F,CF-]2 | F2 D2 (E2 [B,G]2 | %4
 [A,C]2) ([F,CD]2 [B,CE]2 [A,CF]2) | [FB]2 F4 F2- | (F2 E2 D2 C2) | ([CFA]2 [Ac]2 [FA]2 [CF]2) | %8
 ([CE]2 [B,D]2) [B,D]2 [DF]2 | ([B,DG]2 [DB]2 [B,DG]2 [G,E]2) | %10
 ([B,D]2 [A,^C]2)!<(! ([=B,DA]2!<)! [CEG]2) |!<(! [A,F]4!<)! x4 | %12
"^poco rit." [CE]2 [CF]2 [DFB]2 E2 | z2 ([Fcf]3 [Gdg] [Aa]2) | a2 [A=B]2- Bc d2 | %15
 [DFG]2 z2 z2 [=B,DG]2 | [Gc]2 z2 F4 | z8 | [CEA]2 z2 z2 [CFc]2 | x2[K:bass] x2 [F,D]4 | %20
 C2[K:treble] !>!c4 (=Bc) | (AF) A,=B, CD EC | (C2 =B,2) z2 D2- | D=B, (A,C) (B,D) (G=B) | %24
 [CGc]2 z2 z2 !>![EGce]2 | !>![A,A]4 z2 [=B,FG]2 | z2 (e3 f) g2 | ([cg]2 c2) de f2 | %28
!>(! ([Bf]2 B2) [Ec]!>)!d [Be]2 | (ABc!>(!d) (G2 A!>)!B) | (F2 E2) z2 (([EG]2 | [Fc]2)) (F4 E2) | %32
!<(! [A,F]2 F2!<)! A2 [EAc]2 | [Bd]2 (F2 ^F2 G2) | z2 !>![G,G]2!<(! !>![A,A]2!<)! !>![B,GB]2 | %35
 !>![Cc]4!<(! z2!<)! .[_EF]2 | !>![_EF]6 F2- | [B,DF]2 (!>![DBd]3!<(! [Ee]!<)! [Fcf]2) | %38
 [F=Bf]2 z2 z4 | z4!<(! [=B,F-]4!<)! | [CF]4!<(!!<(! E2!<)!!<)! D2 | %41
 (B2!>(!!>(! A2 G2!>)!!>)! A2) | z2!<(! (!>![Afa]3 [Bb]!<)! [cc']2) |!>(! (c'2 d2) (e2!>)! g2 | %44
 c6)!<)!!<(! (c2- | !>![B,c]6!>)!!>(! c2) | c6 z2 |] %47
V:3
 x2 [CF]4 x2 | C6 x2 | x8 | [CD]6 x2 | x8 | B,2 x2 D2 C2 | B,2 x2 DB, x2 | x8 | x8 | x8 | x8 | %11
 (E2 D2) z2 !>![DFd]2 | x8 | x8 | A2 F2- [FA]2 [FA]2 | x8 | B,2 x2 C2 =B,2 | x8 | x8 | %19
 [CEG]2[K:bass] [G,C-E]2 C2 =B,2 | E,2[K:treble] C4 C2- | C2 x4 G,2 | [F,F]4 x2 A,2 | %23
 G,2 ^F,2 G,2 =B,2 | x8 | (E2 D2) x4 | x2 !>![Gc]4 [Gd]2 | G2 F2 F2 [Fc]2 | F2 x2 x x E2- | %29
 E2 D4 D2 | C4 x2 C2 | C2 z2 B,4 | x8 | D2 D4 D2 | x2 E4 x2 | G2 F2 x2 B,2 | (B,4 C2) [A,_E]2 | %37
 x8 | x8 | x8 | x8 | !>!E4 E4 | x8 | c6 B2 | A2 C2 .F.G A2 | A2 D2 E2 [B,G]2 | %46
 ([B,G]4 [A,F]2) z2 |] %47
V:4
!mf! (F,,C,)!<(! z C, (A,,C,)!<)! z C, |!>(! (G,,C,) z C, (C,,C,)!>)! z C, | %2
 (F,,C,) z C, (A,,C,) z C, | (F,,C,) z C, (C,,C,) z C, | F,,C, A,,C, G,,!<(!C, F,,!<)!C, | %5
 D,F, z C, B,,F,A,,F, | (G,,C,G,B, DB,G,C,) |"^dolce" (A,,F, C2) z F, (A,,F,) | %8
 (A,,F,) z F, (B,,F, B,,)F, | (G,,E, B,2) z E, G,,E, | A,,E, z!<(! G,, (F,,A,,E,,)!<)!A,, | %11
 (D,,!<(!A,,D,E,!<)! F,D,)!mf! [G,,D,B,]2 | B,2 A,2 G,2 B,2 | %13
"^a tempo" (F,,C,!f!F,!<(!C,) ((F,,C,E,,)!<)!C,) | (D,,A,,F,E,) (D,A,C,A,) | %15
 G,2"^Animato." z2 z2 G,2 | [E,G,]2 z2 [G,,D,]4 | (A,,E,CE,)!<(! ((A,,E,)!<)! (G,,)E,) | %18
 [F,,C,A,]2 z2 z2 [D,,D,]2 | G,,4 [G,,,G,,]4 | z2 C,D, E,C, G,2 | [C,A,]2 C,4 C,2 | D,2 z2 C,,4 | %23
 [=A,,,=B,,]2 [D,,D,]2 [G,,,G,,]2 [F,,G,,G,]2 | [E,,C,G,]2 z2 z2"^allargando" [C,,C,]2 | %25
 [F,,F,]4 [G,,G,]4 |"^a tempo" C,2!f! G,2 C3 _B, | A,3 A, B,2 A,2 |"^dim" G,3!>(! G, A,2!>)! G,2 | %29
 F,3!>(! F, B,2!>)! D,2 |!p! [B,,C,G,]4 z2 [B,,,B,,]2 | [A,,,A,,]4 [C,,C,]4 | %32
"^cresc."!<(! [D,,D,]4!<)! [C,,C,]4 | B,,2 F,2 ^F,2 G,2 | %34
"^allargando" C,,G,,C,!<(!E, z C,B,,!<)!C, |"^cresc." [A,,,A,,]4!<(! z2!<)! [G,,,G,,]2 | %36
 [F,,,F,,]C,G,C, A,2 F,,2 | B,,F,B,F,!<(! B,,F,A,,!<)!F, | [G,,D,=B,]2 z2 z4 | %39
 z4!p!"^cresc."!<(! [D,F,]4!<)! | A,4 G,2 F,2 | [C,,C,]8 | %42
"^a tempo" F,,C,!p! z!<(! C, A,,C, z!<)! C, |!>(! G,,C, z C, C,,C, z!>)! C, | %44
 F,,C, z!<(! C, A,,C, z!<)! C, | G,,C, z!>(! C, C,,C, z!>)! C, |!p! [F,,C,]6 z2 |] %47
V:5
 F,,2 x2 A,,2 x2 | G,,2 x2 C,,2 x2 | F,,2 x2 A,,2 x2 | F,,2 x2 C,,2 x2 | F,,2 (A,,2 G,,2 F,,2) | %5
 D,2 x2 (B,,2 A,,2) | x8 | A,,2 x2 x2 A,,2 | A,,2 x2 B,,2 B,,2 | G,,2 x2 x2 G,,2 | %10
 A,,2 x2 F,,2 E,,2 | D,,2 x2 x4 | C,6 C,2 | F,,2 x2 F,,2 E,,2 | D,,2 x2 D,2 C,2 | =B,,2 x2 x2 F,2 | %16
 x8 | A,,2 x2 A,,2 G,,2 | x8 | x8 | [A,,,A,,]4 G,,4 | F,,2 x2 (E,,4 | D,,2) x2 x4 | x8 | x8 | x8 | %26
 C,,2 z2 z4 | C,6 z2 | C,6 z2 | C,6 C,2 | x8 | x8 | x8 | B,,,2 z2 z2 B,,2 | C,,2 x2 x2 B,,2 | x8 | %36
 x8 | B,,2 x2 B,,2 A,,2 | x8 | x8 | C,8 | x8 | F,,2 x2 A,,2 x2 | G,,2 x2 C,,2 x2 | %44
 F,,2 x2 A,,2 x2 | G,,2 x2 C,,2 x2 | x8 |] %47

